!!!COM: Gabriel Faure/
!!!CNT: Francais
!!!TXO: Francais
!!!OTL: "J'allais par des chemins perfides"
!!!LYR: Verlaine
!!!OPR: La bonne chanson
!!!OPS: Op. 61
!!!ONM: No. 4
!!!ENC: Emily Thomas
!!!YOR: CD Sheet Music French Art Songs, The Ultimate Collection
!!!YOR: CD Sheet Music, LLC 2003
!!!ODT: 1894/
!!NB: Vocal melody and text encoded.
**kern	**silbe
=1	=1
*clefG2	*
*k[f#c#g#]	*
*M3/4	*
*MM[Allegretto quasi Andante]	*
2.r	.
=2	=2
2.r	.
=3	=3
2.r	.
=4	=4
2.r	.
=5	=5
8r	.
{8f#	{J'al-
[2cc#	-lais
=6	=6
8cc#]	|
8cc#	par
8dd	des
8b-	che-
8.fn	-mins
16gn	per-
=7	=7
2a	-fi-
[4e	-des,
=8	=8
8e]}	|}
8r	.
4r	.
4r	.
=9	=9
4r	.
4r	.
{8f#	{Dou-
8cc#	-lou-
=10	=10
8.dd#	-reu-
16dd#	-se-
4ee	-ment
8gn	in-
8a	-cer-
=11	=11
[2b	-tain,
8b]}	|}
8r	.
=12	=12
2.r	.
=13	=13
4r	.
4r	.
{4cc-	{Vos
=14	=14
8.cc-	che\-
16cc-	-res
2b-	mains
=15	=15
2a	fu-
8b-	-rent
8ccn	mes
=16	=16
4ee-	gui-
2dd-}	-des;}
=17	=17
4r	.
4r	.
8r	.
{8cc#	{Si
=18	=18
4.cc#	pa^le
8cc#	a\
8b	l'ho-
8gn	-ri-
=18	=18
8a	-zen
8f#	loin-
4.g#	-tain
8g#	Lui-
=19	=19
4.a	-sait
8a	un
8fn	faible
8gn	es-
=20	=20
8.a	-poir
16dd	d'au-
4dd	-ro-
[4a	-re
=21	=21
4a]}	|}
4r	.
4r	.
=22	=22
4r	.
{4cc#	{Vo-
8a	-tre
8g#	re-
=23	=23
4f#	-gard
4ff#	fut
8ee	le
8dd	ma-
=24	=24
2.cc#}	-tin!}
=25	=25
2.r	.
=25	=25
4r	.
4r	.
8r	.
{8ccn	{Nul
=26	=26
[4b	bruit,
8b]}	|}
8r	.
8r	.
{8a	{si-
=27	=27
4.a	-non
8gn	son
8a	pas
8b	so-
=28	=28
[2ccn	-no-
8ccn]}	|}
8r	.
=29	=29
4r	.
{4ccn	{N'en-
8b	-cou-
8b	-ra-
=30	=30
4.b	-geait
8a	le
8b	voy-
8b#	-a-
=31	=31
2cc#	-geur,
8.cc#	Vo-
16cc#	-tre
=32	=32
4.ff#	voix
8dd	me
[4dd	dit:
=33	=33
4dd]}	|}
{4.a	{Marche
8a	ca-
=34	=34
2.gn	-co-
=35	=35
[2.gn	-re!
=36	=36
4gn]}	|}
4r	.
4r	.
=37	=37
2.r	.
=38	=38
2.r	.
=39	=39
8r	.
{8fn	{Mon
4.a	coeur
8gn	crain-
=40	=40
4.ccn	-tif,
8ccn	mon
8.bn	somb-
16bn	-re
=41	=41
[2a	coeur
8a]}	|}
8r	.
=42	=42
8r	.
{8fn	{pleu-
4ee-	-rait,
4dd	seul,
=43	=43
8ccn	sur
8a-	la
4.b-	tris-
8g-	-te
=44	=44
2.f#	voi-
=45	=45
2.e#}	-e,}
=46	=46
*k[f#c#g#d#a#e#]	*
*MM[un poco pui\ mosso]	*
2.r	.
=47	=47
2.r	.
=48	=48
4r	.
4r	.
{4f#	{L'a-
=49	=49
[2.ff#	-mour,
=50	=50
4ff#]	|
4ee#	de/-
8.dd#	-li-
16dd#	-ci-
=51	=51
2cc#	-eux
4b#	vain-
=52	=52
2a#}	-queur,}
4r	.
=53	=53
2.r	.
=54	=54
2.r	.
=55	=55
{2.cc#	{Nous
=56	=56
4dd#	a-
4.cc#	-re/-
8g#	-u-
=57	=57
[2.cc#	-ni
=58	=58
8cc#]}	|}
8r	.
{4.cc#	{dans
8cc#	la
=59	=59
[2.ff#	joi-
=60	=60
2ff#]	|
4cc#	|
=61	=61
[2.cc#	-e!
=62	=62
2.cc#]}	|}
==	==
*-	*-
